images/email-forward.svg

<?xml version="1.0" encoding="utf-8"?>
<!-- Generated by IcoMoon.io -->
<!DOCTYPE svg PUBLIC "-//W3C//DTD SVG 1.1//EN" "http://www.w3.org/Graphics/SVG/1.1/DTD/svg11.dtd">
<svg version="1.1" xmlns="http://www.w3.org/2000/svg" xmlns:xlink="http://www.w3.org/1999/xlink" width="30" height="30" viewBox="0 0 30 30">
<g>
	<line stroke-width="1" x1="" y1="" x2="" y2="" stroke="#449FDB" opacity=""></line>
</g>
	<path d="M28.194 13.432l-3.123 3.123c-0.255 0.255-0.606 0.329-0.936 0.262v-2.397h-6.965c-1.53 0-2.76 1.257-2.76 2.775 0 0.147 0.018 0.291 0.043 0.435-0.197-0.518-0.316-1.077-0.316-1.671 0-2.771 2.247-5 5.018-5 0.061 0 1.203 0 1.203 0v-4.839c0-0.278-0.224-0.504-0.504-0.504h-14.104l1.606-1.606h13.362c0.688 0 1.243 0.558 1.243 1.246v5.704h2.174v-2.376c0.329-0.067 0.681 0.009 0.936 0.264l3.123 3.123c0.404 0.404 0.404 1.058 0 1.461zM20.358 21.806v-4.893h1.604v5.755c0 0.688-0.555 1.245-1.243 1.245h-17.412c-0.688 0-1.246-0.558-1.246-1.245v-13.362l1.606-1.606v14.106c0 0.277 0.227 0.504 0.504 0.504h15.683c0.281 0 0.504-0.227 0.504-0.504z" fill="#000000"></path>
</svg>

<?xml version="1.0" encoding="UTF-8" standalone="no"?>
<!-- Created with Inkscape (http://www.inkscape.org/) -->

<svg
   xmlns:dc="http://purl.org/dc/elements/1.1/"
   xmlns:cc="http://creativecommons.org/ns#"
   xmlns:rdf="http://www.w3.org/1999/02/22-rdf-syntax-ns#"
   xmlns:svg="http://www.w3.org/2000/svg"
   xmlns="http://www.w3.org/2000/svg"
   xmlns:inkscape="http://www.inkscape.org/namespaces/inkscape"
   version="1.1"
   width="30"
   height="30"
   viewBox="0 0 30 30"
   id="svg2">
  <metadata
     id="metadata10">
    <rdf:RDF>
      <cc:Work
         rdf:about="">
        <dc:format>image/svg+xml</dc:format>
        <dc:type
           rdf:resource="http://purl.org/dc/dcmitype/StillImage" />
      </cc:Work>
    </rdf:RDF>
  </metadata>
  <defs
     id="defs8" />
  <path
     d="m 28.194,13.432 -3.123,3.123 c -0.25,0.255 -0.6,0.33 -0.93,0.262 V 14.42 h -6.97 c -1.53,0 -2.76,1.257 -2.76,2.775 0,0.147 0.02,0.29 0.05,0.435 -0.197,-0.518 -0.316,-1.077 -0.316,-1.67 0,-2.772 2.247,-5 5.018,-5 h 1.204 V 6.12 c 0,-0.278 -0.224,-0.504 -0.504,-0.504 H 5.75 L 7.356,4.01 h 13.362 c 0.688,0 1.243,0.558 1.243,1.246 v 5.704 h 2.18 V 8.584 c 0.33,-0.067 0.68,0.01 0.94,0.264 l 3.12,3.122 c 0.406,0.41 0.406,1.06 0,1.466 z m -7.836,8.374 v -4.893 h 1.604 v 5.755 c 0,0.688 -0.555,1.245 -1.243,1.245 H 3.3 c -0.688,0 -1.246,-0.558 -1.246,-1.245 V 9.306 L 3.666,7.7 v 14.106 c 0,0.277 0.228,0.504 0.505,0.504 h 15.69 c 0.28,0 0.508,-0.227 0.508,-0.504 z"
     inkscape:connector-curvature="0"
     id="path4" />
</svg>
